X:3
T:Quand souffle l'esprit - K112
C:J. Akepsimas
M:4/4
L:1/8
K:C
C2|"Do"G2 GA "Sol"G4-|"Sibm"G E EF G2 FE|"Fa"D2 DE "Fam"FF FG|"Do"E4 z2GA|
G2 FE "Sol"F3 G|F2 E2 "Do"E2 GA|G2 FE "Sol"F3 G|F2 E2 "Do"E4-|Ez E2 F2 G2||
|:"Fa"A2 AA "Si"BB BA|"Mim"G4 "La"zE AE|1"Rem-Sol"F4 "Do"E4-|Ez E2 F2 G2:|2"Rem-Sol"D4 "Do"C4||
